X: 20254
T: The RAMBLER; or JOCK TAMSON'S HORNPIPE
C: Copyright.--J. M.
%R: hornpipe, reel
B: W. Hamilton "Universal Tune-Book" Vol. 2 Glasgow 1846 p.25 #4
S: http://s3-eu-west-1.amazonaws.com/itma.dl.printmaterial/book_pdfs/hamiltonvol2web.pdf
Z: 2016 John Chambers <jc:trillian.mit.edu>
N: There are final repeat symbols but no initial repeat symbols.
M: C
L: 1/8
K: F
% - - - - - - - - - - - - - - - - - - - - - - - - -
c2 |\
fefg afdB | cdef gabg | babg agaf | ecfd cdec |\
fefg afdB | cAdf efed | cABd cAGB | A2F2F2 :|
|: c2 |\
FEFD EFGA | BAGA Bcdf | gfed cdec | dBGF EFGA |\
BABd cfed | cbAf eAdc | BGEF GABc | A2F2F2 :|
% - - - - - - - - - - - - - - - - - - - - - - - - -

%%sep 1 1 500
%%sep 1 1 500

